X: 4
T: the Duchess of Gordon #4
C: William Marshall
M: C
L: 1/8
R: Strathspey
B: Marshall's 1822 Collection.
B: Surenne - Dance Music of Scotland, pp. 22-23  (1852)
Z: AK/Fiddler's Companion
K: A
E |\
"A"A,>C E>C "D"D<F "A"E2 | "Bm"F<B B>c "E7"d/c/B/A/ G/F/E/D/ |\
"A"C>D E>C "D"D<F "A"E2 | "Bm"F>B "E7"A/G/F/E/ "A"A3 :|
d |\
"A"c>e A>e c>e d/c/B/A/ | "E7"G>B E>B G>B E>d |\
"A"c>e A>e c>e d/c/B/A/ | "Bm"F>B "E7"A/G/F/E/ "A"A3 |]
d |\
"A"c>e A>e c>e a>A | "Bm"F<B B>c "E7"d/c/B/A/ G/F/E/D/ |\
"A"C>D E>C "D"D<F "A"E2 | "Bm"F>B "E7"A/G/F/E/ "A"A3 |]
